X: 1237
T: Kayada Yatan Oğlan
C: Yağcıoğlu Fehmi Efe
O: Turkey
F: http://compmusic.upf.edu/node/140
N: tahir--turku--sofyan--kayada_yatan--ankara
N: makam= tahir
N: form= turku
N: usul= sofyan = 4/4
M: 4/4
L: 1/16
K: C _2/4B ^3/4f  
Q: 1/4=93
%%MIDI tuningsystem comma53
z2fg a2a2 a2c'b a4  | z2fg g2gf gafg e2d2  | 
w:  Ka ya da  ya tan  oğ *  lan    |  Göm le ği  ke *  ten  *  oğ *  lan    | 
dd3 fga2 a2c'b a4  | z2fg g2gf gafg e2d2  | 
w:  Ka ya da  *  ya tan  oğ *  lan    |  Göm le ği  ke *  ten  *  oğ *  lan    | 
z2fg g2gf gafg e2d2  | ccd2 d2dB cc3 {c}B4  | 
w:  Ge ce  gel me  *  gün *  düz  *  gel    |  Ho roz *  dan  kor *  kan_ oğ *  lan    | 
A2A2 A2A2 A2.A2 e2d2  | c2d2 d2dB {d}c2c2 B2A2  | \
w:  Am man  şe ker  oğ lan   SAZ  |  Yan dım  be kâr  *  *  oğ lan    | 
z2GA AA3 AA2G e2d2  | 
w:  A na sı na  da rıl *  mış    | 
cd2d d2dB {d}c2c2 B2A2  | d2d2 d2d2 d2.d2 e2d2  | \
w:  Dam *  da  ya tan  *  *  oğ lan    |  Am man  şe ker  oğ lan   SAZ  | 
c2d2 d2dB {d}c2c2 B2A2  | 
w:  Yan dım  be kâr  *  *  oğ lan    | 
z2GA AA3 AA2G e2d2  | cd2d d2dB c2c2 B2A2  | \
w:  A na sı na  da rıl *  mış    |  Dam *  da  ya tan  *  oğ lan    | 
z2fg a2a2 a2c'b a4  | 
w:  Ka ya da  ya tan  oğ *  lan    | 
z2fg g2gf gafg e2d2  | dd3 fga2 a2c'b a4  | 
w:  Göm le ği  ke *  ten  *  oğ *  lan    |  Ka ya da  *  ya tan  oğ *  lan    | 
z2fg g2gf gafg e2d2  | z2fg g2gf gafg e2d2  | 
w:  Göm le ği  ke *  ten  *  oğ *  lan    |  Ge ce  gel me  *  gün *  düz  *  gel    | 
ccd2 d2dB cc3 {c}B4  | A2A2 A2A2 A2.A2 e2d2  | \
w:  Ho roz *  dan  kor *  kan_ oğ *  lan    |  Am man  şe ker  oğ lan   SAZ  | 
c2d2 d2dB {d}c2c2 B2A2  | 
w:  Yan dım  be kâr  *  *  oğ lan    | 
z2GA AA3 AA2G e2d2  | cd2d d2dB {d}c2c2 B2A2  | \
w:  A na sı na  da rıl *  mış    |  Dam *  da  ya tan  *  *  oğ lan    | 
d2d2 d2d2 d2.d2 e2d2  | 
w:  Am man  şe ker  oğ lan   SAZ  | 
c2d2 d2dB {d}c2c2 B2A2  | z2GA AA3 AA2G e2d2  | \
w:  Yan dım  be kâr  *  *  oğ lan    |  A na sı na  da rıl *  mış    | 
cd2d d2dB c2c2 B2A2  | 
w:  Dam *  da  ya tan  *  oğ lan    | 
|


